school_project/img/icons/watsapp.svg

<svg width="44" height="44" viewBox="0 0 44 44" fill="none" xmlns="http://www.w3.org/2000/svg">
<path d="M0 44L3.10759 32.7012C1.18999 29.3938 0.182366 25.6447 0.184208 21.8002C0.189735 9.78083 10.0172 0 22.0921 0C27.9518 0.00183333 33.4522 2.27333 37.5895 6.39467C41.725 10.516 44.0018 15.994 44 21.8203C43.9945 33.8415 34.167 43.6223 22.0921 43.6223C18.4264 43.6205 14.814 42.7057 11.6143 40.9677L0 44ZM12.1522 37.0205C15.2396 38.8447 18.1869 39.9373 22.0847 39.9392C32.1204 39.9392 40.2956 31.8102 40.3011 21.8167C40.3048 11.803 32.1683 3.685 22.0995 3.68133C12.0564 3.68133 3.8868 11.8103 3.88311 21.802C3.88127 25.8812 5.08231 28.9355 7.09939 32.131L5.25915 38.819L12.1522 37.0205ZM33.128 27.0032C32.9917 26.7758 32.627 26.6402 32.078 26.367C31.5309 26.0938 28.8397 24.7757 28.3368 24.5942C27.8357 24.4127 27.471 24.321 27.1044 24.8673C26.7397 25.4118 25.6897 26.6402 25.371 27.0032C25.0523 27.3662 24.7318 27.412 24.1847 27.1388C23.6376 26.8657 21.8729 26.2918 19.7821 24.4347C18.1556 22.99 17.0558 21.2062 16.7372 20.6598C16.4185 20.1153 16.704 19.8202 16.9766 19.5488C17.2235 19.305 17.5237 18.9127 17.7982 18.5937C18.0764 18.2783 18.1666 18.051 18.3508 17.6862C18.5332 17.3232 18.4429 17.0042 18.3048 16.731C18.1666 16.4597 17.0724 13.7775 16.6174 12.6867C16.1716 11.6252 15.7203 11.7682 15.3851 11.7517L14.3351 11.7333C13.9704 11.7333 13.3772 11.869 12.8762 12.4153C12.3751 12.9617 10.9604 14.278 10.9604 16.9602C10.9604 19.6423 12.9222 22.2328 13.1948 22.5958C13.4693 22.9588 17.054 28.4625 22.5453 30.822C23.8513 31.383 24.8718 31.7185 25.6657 31.9697C26.9773 32.384 28.171 32.3253 29.1141 32.186C30.166 32.0302 32.3525 30.8678 32.8093 29.5955C33.2662 28.3213 33.2662 27.2305 33.128 27.0032Z" fill="#424242"/>
</svg>

<svg width="44" height="44" viewBox="0 0 44 44" fill="none" xmlns="http://www.w3.org/2000/svg"><path d="M0 44l3.108-11.299a21.677 21.677 0 01-2.924-10.9C.19 9.78 10.017 0 22.092 0c5.86.002 11.36 2.273 15.498 6.395 4.135 4.121 6.412 9.599 6.41 15.425-.005 12.022-9.833 21.802-21.908 21.802a22.003 22.003 0 01-10.478-2.654L0 44zm12.152-6.98c3.088 1.825 6.035 2.917 9.933 2.92 10.035 0 18.21-8.13 18.216-18.123C40.305 11.803 32.168 3.685 22.1 3.68c-10.043 0-18.212 8.13-18.216 18.121-.002 4.08 1.2 7.134 3.216 10.329l-1.84 6.688 6.893-1.799zm20.976-10.017c-.136-.227-.501-.363-1.05-.636-.547-.273-3.238-1.591-3.741-1.773-.501-.181-.866-.273-1.233.273-.364.545-1.414 1.773-1.733 2.136-.319.363-.64.409-1.186.136-.547-.273-2.312-.847-4.403-2.704-1.626-1.445-2.726-3.229-3.045-3.775-.318-.545-.033-.84.24-1.111.247-.244.547-.636.821-.955.278-.316.369-.543.553-.908.182-.363.092-.682-.046-.955-.138-.271-1.233-2.954-1.688-4.044-.445-1.062-.897-.919-1.232-.935l-1.05-.019c-.365 0-.958.136-1.459.682-.5.547-1.916 1.863-1.916 4.545s1.962 5.273 2.235 5.636c.274.363 3.859 5.866 9.35 8.226 1.306.561 2.327.896 3.12 1.148 1.312.414 2.506.355 3.45.216 1.051-.156 3.238-1.318 3.694-2.59.457-1.275.457-2.366.319-2.593z" fill="#424242"/></svg>
